images/dsr-logo-small.svg

<svg height="60" viewBox="0 0 180 60" width="180" xmlns="http://www.w3.org/2000/svg"><g fill="none" fill-rule="evenodd"><path d="m0 0h60v60h-60z" fill="#73ffe1"/><path d="m17 48.692v-37.692h11.718c9.774 0 14.526 6.642 14.526 18.846s-4.752 18.846-14.526 18.846zm6.966-5.67h4.266c5.184 0 7.614-3.51 7.614-9.936v-6.534c0-6.372-2.43-9.882-7.614-9.882h-4.266z" fill="#000"/><g transform="translate(60)"><path d="m0 0h60v60h-60z" fill="#b973ff"/><path d="m29.878 49.988c-6.426 0-11.016-2.43-13.878-6.102l4.266-4.428c2.808 3.24 6.102 4.752 9.828 4.752 4.32 0 6.696-2.052 6.696-5.67 0-2.97-1.566-4.428-5.67-5.076l-3.996-.648c-6.966-1.188-9.666-5.4-9.666-10.638 0-7.182 5.022-11.178 13.23-11.178 5.886 0 10.206 1.998 12.798 5.238l-4.158 4.428c-1.998-2.376-4.806-3.888-8.586-3.888-4.05 0-6.156 1.728-6.156 5.076 0 2.862 1.566 4.266 5.724 4.968l3.942.702c6.48 1.188 9.666 4.914 9.666 10.53 0 7.02-4.914 11.934-14.04 11.934z" fill="#000"/></g><g transform="translate(120)"><path d="m0 0h60v60h-60z" fill="#fff"/><path d="m24.074 34.058v14.634h-7.074v-37.692h14.31c7.29 0 11.34 4.482 11.34 11.664 0 5.508-2.7 9.558-7.398 10.584l8.046 15.444h-7.776l-7.182-14.634zm0-5.508h5.778c3.78 0 5.346-1.512 5.346-4.86v-2.052c0-3.348-1.566-4.86-5.346-4.86h-5.778z" fill="#000"/></g></g></svg>

<svg xmlns="http://www.w3.org/2000/svg" width="180" height="60" viewBox="0 0 180 60">
  <g fill="none" fill-rule="evenodd">
    <rect width="60" height="60" fill="#73FFE1"/>
    <path fill="#000" d="M17,48.692 L17,11 L28.718,11 C38.492,11 43.244,17.642 43.244,29.846 C43.244,42.05 38.492,48.692 28.718,48.692 L17,48.692 Z M23.966,43.022 L28.232,43.022 C33.416,43.022 35.846,39.512 35.846,33.086 L35.846,26.552 C35.846,20.18 33.416,16.67 28.232,16.67 L23.966,16.67 L23.966,43.022 Z"/>
    <g transform="translate(60)">
      <rect width="60" height="60" fill="#B973FF"/>
      <path fill="#000" d="M29.878,49.988 C23.452,49.988 18.862,47.558 16,43.886 L20.266,39.458 C23.074,42.698 26.368,44.21 30.094,44.21 C34.414,44.21 36.79,42.158 36.79,38.54 C36.79,35.57 35.224,34.112 31.12,33.464 L27.124,32.816 C20.158,31.628 17.458,27.416 17.458,22.178 C17.458,14.996 22.48,11 30.688,11 C36.574,11 40.894,12.998 43.486,16.238 L39.328,20.666 C37.33,18.29 34.522,16.778 30.742,16.778 C26.692,16.778 24.586,18.506 24.586,21.854 C24.586,24.716 26.152,26.12 30.31,26.822 L34.252,27.524 C40.732,28.712 43.918,32.438 43.918,38.054 C43.918,45.074 39.004,49.988 29.878,49.988 Z"/>
    </g>
    <g transform="translate(120)">
      <rect width="60" height="60" fill="#FFF"/>
      <path fill="#000" d="M24.074,34.058 L24.074,48.692 L17,48.692 L17,11 L31.31,11 C38.6,11 42.65,15.482 42.65,22.664 C42.65,28.172 39.95,32.222 35.252,33.248 L43.298,48.692 L35.522,48.692 L28.34,34.058 L24.074,34.058 Z M24.074,28.55 L29.852,28.55 C33.632,28.55 35.198,27.038 35.198,23.69 L35.198,21.638 C35.198,18.29 33.632,16.778 29.852,16.778 L24.074,16.778 L24.074,28.55 Z"/>
    </g>
  </g>
</svg>
